X: 10599
T: Doughnut, The
R: jig
M: 6/8
K: Dmajor
DFG BAA|d3 d d/c/B/c/|dBB dGG|FAd FAd:|
GFE EDE|GFE E2 E|dBA ggg|edc AGG|
A/G/A/B/c/d/ ecc|BGG BGG|DDD G3:|

